svgs/gappsmod.svg

<svg width="192" height="192" viewBox="0 0 192 192" fill="none" xmlns="http://www.w3.org/2000/svg">
<path d="M105 87H170C170 122.898 140.898 152 105 152C69.1007 152 40 122.898 40 87C40 51.1007 69.1007 22 105 22C122.95 22 139.2 29.2756 150.962 41.038" stroke="black" stroke-width="12" stroke-linecap="round" stroke-linejoin="round"/>
<path d="M53.6489 116.873L22.5738 154.871C20.4812 157.43 20.8525 161.2 23.4042 163.301L31.0469 169.595C33.6474 171.737 37.501 171.318 39.581 168.668L70.0988 129.786C71.1009 128.509 72.5774 127.693 74.1915 127.523L86.5989 126.219C88.1814 126.052 89.6331 125.264 90.6346 124.028L102.191 109.756C103.193 108.519 103.662 106.936 103.496 105.353L102.488 95.7699C102.369 94.6364 101.586 93.6829 100.497 93.3459C99.3842 93.0014 98.1736 93.3692 97.4404 94.2746L91.6771 101.392C89.6206 103.931 85.9099 104.358 83.3304 102.352L78.3796 98.5009C75.8016 96.4957 75.301 92.7967 77.2533 90.1784L82.7927 82.7492C83.6635 81.5814 83.5336 79.9491 82.4892 78.9336C81.8717 78.3332 81.0193 78.0381 80.1627 78.1281L71.0575 79.0851C69.4749 79.2515 68.0232 80.0397 67.0218 81.2763L55.02 96.0973C54.0185 97.334 53.5494 98.9179 53.7157 100.5L54.9714 112.447C55.1387 114.04 54.6626 115.633 53.6489 116.873Z" stroke="black" stroke-width="8" stroke-linejoin="round"/>
</svg>

<svg width="192" height="192" viewBox="0 0 192 192" fill="none" xmlns="http://www.w3.org/2000/svg"><path d="M105 87h65c0 35.898-29.102 65-65 65-35.9 0-65-29.102-65-65 0-35.9 29.1-65 65-65 17.95 0 34.2 7.276 45.962 19.038" stroke="#000" stroke-width="12" stroke-linecap="round" stroke-linejoin="round"/><path d="m53.649 116.873-31.075 37.998a6 6 0 0 0 .83 8.43l7.643 6.294a6 6 0 0 0 8.534-.927l30.518-38.882a6 6 0 0 1 4.093-2.263l12.407-1.304a6.005 6.005 0 0 0 4.036-2.191l11.556-14.272a6 6 0 0 0 1.305-4.403l-1.008-9.583a2.849 2.849 0 0 0-5.048-1.495l-5.763 7.117a6 6 0 0 1-8.347.96l-4.95-3.851a6 6 0 0 1-1.127-8.323l5.54-7.429a2.902 2.902 0 0 0-2.63-4.62l-9.105.956a6 6 0 0 0-4.036 2.191L55.02 96.097a6 6 0 0 0-1.304 4.403l1.255 11.947a6.002 6.002 0 0 1-1.322 4.426Z" stroke="#000" stroke-width="8" stroke-linejoin="round"/></svg>
